X: 156
%
U:~=!turn!
T: The Duke of Gordon's Birthday
C:Marshall
O:Scotland
B:Keith Norman MacDonald : "The Skye collection of the best reels & strathspeys extant" : 1887
Z:Ralph Palmer
R:Strathspey
M:C
L:1/8
K:G
B | {/F}G>D{/F}G>B {/F}G>D{/F}G<B | {/^c}d>B{/f}g>B A/A/A {cB}(A>B) | {/F}G>D{/F}G>B {/F}G>D{/F}G>B | [1 {^c}d>cTB>A G/G/G G :|
[2 D>CB,>A, G,/G,/G, G, |: [Bd] | ~(g>a)b>g d/d/d Td2 | {/f}~(g>a)b>g e/e/e (Te>f) | {/f}g<be<g d<gB<g | {cB}A>GA>B G/G/G TG H:|


